StripePaymentsUI/StripePaymentsUI/Resources/StripePaymentsUI.xcassets/Cards/stp_card_cbc.imageset/cbcDark.svg

<svg fill="none" height="17" viewBox="0 0 26 17" width="26" xmlns="http://www.w3.org/2000/svg"><g clip-rule="evenodd" fill="#fff" fill-rule="evenodd"><path d="m21.9972 16.9999h-19.99444c-.26084.0022-.51955-.0478-.76136-.1473-.241814-.0996-.461995-.2466-.64797-.4327s-.334102-.4077-.435923-.652c-.1018215-.2444-.15534243-.5068-.157507-.7722v-11.99144c.00216457-.26541.0556855-.52778.157507-.77214.101821-.24436.249948-.46592.435923-.65203s.406156-.33312.64797-.43264c.24181-.09952.50052-.1496.76136-.14738h19.99444c.2609-.00222.5196.04786.7614.14738s.462.24653.648.43264c.1859.18611.3341.40767.4359.65203s.1553.50673.1575.77214v11.99994c-.0065.5345-.221 1.0446-.5963 1.4187-.3754.374-.8811.5815-1.4065.577z" fill-opacity=".2"/><g fill-opacity=".3"><path d="m21.1131 11.2487c0-.3873-.2897-.6989-.6456-.6989h-3.502c-.3559 0-.6456.3116-.6456.6989v1.8127c0 .3873.2897.6989.6456.6989h3.502c.3559 0 .6456-.3116.6456-.6989z"/><path d="m15.1131 11.2487c0-.3873-.2897-.6989-.6456-.6989h-3.502c-.3559 0-.6456.3116-.6456.6989v1.8127c0 .3873.2897.6989.6456.6989h3.502c.3559 0 .6456-.3116.6456-.6989z"/></g></g></svg>

<svg width="26" height="17" viewBox="0 0 26 17" fill="none" xmlns="http://www.w3.org/2000/svg">
<path fill-rule="evenodd" clip-rule="evenodd" d="M21.9972 16.9999H2.00276C1.74192 17.0021 1.48321 16.9521 1.2414 16.8526C0.999586 16.753 0.779405 16.606 0.59343 16.4199C0.407455 16.2338 0.259328 16.0122 0.157507 15.7679C0.0556855 15.5235 0.00216457 15.2611 0 14.9957L0 3.00426C0.00216457 2.73885 0.0556855 2.47648 0.157507 2.23212C0.259328 1.98776 0.407455 1.7662 0.59343 1.58009C0.779405 1.39398 0.999586 1.24697 1.2414 1.14745C1.48321 1.04793 1.74192 0.99785 2.00276 1.00007H21.9972C22.2581 0.99785 22.5168 1.04793 22.7586 1.14745C23.0004 1.24697 23.2206 1.39398 23.4066 1.58009C23.5925 1.7662 23.7407 1.98776 23.8425 2.23212C23.9443 2.47648 23.9978 2.73885 24 3.00426V15.0042C23.9935 15.5387 23.779 16.0488 23.4037 16.4229C23.0283 16.7969 22.5226 17.0044 21.9972 16.9999Z" fill="white" fill-opacity="0.2"/>
<path fill-rule="evenodd" clip-rule="evenodd" d="M21.1131 11.2487C21.1131 10.8614 20.8234 10.5498 20.4675 10.5498H16.9655C16.6096 10.5498 16.3199 10.8614 16.3199 11.2487V13.0614C16.3199 13.4487 16.6096 13.7603 16.9655 13.7603H20.4675C20.8234 13.7603 21.1131 13.4487 21.1131 13.0614V11.2487Z" fill="white" fill-opacity="0.3"/>
<path fill-rule="evenodd" clip-rule="evenodd" d="M15.1131 11.2487C15.1131 10.8614 14.8234 10.5498 14.4675 10.5498H10.9655C10.6096 10.5498 10.3199 10.8614 10.3199 11.2487V13.0614C10.3199 13.4487 10.6096 13.7603 10.9655 13.7603H14.4675C14.8234 13.7603 15.1131 13.4487 15.1131 13.0614V11.2487Z" fill="white" fill-opacity="0.3"/>
</svg>
